src/apps/symbolic/goa-account-exchange-symbolic.svg

<svg width="16" height="16" version="1.1" xmlns="http://www.w3.org/2000/svg" xmlns:xlink="http://www.w3.org/1999/xlink">
 <defs>
  <clipPath id="b">
   <path d="M0 0h192v152H0z"/>
  </clipPath>
  <clipPath id="c">
   <path d="M0 0h192v152H0z"/>
  </clipPath>
  <clipPath id="d">
   <path d="M0 0h192v152H0z"/>
  </clipPath>
  <clipPath id="e">
   <path d="M0 0h192v152H0z"/>
  </clipPath>
  <mask id="i">
   <g filter="url(#a)">
    <path d="M0 0h16v16H0z" fill-opacity=".1"/>
   </g>
  </mask>
  <mask id="g">
   <g filter="url(#a)">
    <path d="M0 0h16v16H0z" fill-opacity=".2"/>
   </g>
  </mask>
  <mask id="k">
   <g filter="url(#a)">
    <path d="M0 0h16v16H0z" fill-opacity=".2"/>
   </g>
  </mask>
  <mask id="m">
   <g filter="url(#a)">
    <path d="M0 0h16v16H0z" fill-opacity=".1"/>
   </g>
  </mask>
  <g id="h" clip-path="url(#c)">
   <path d="M73.027 54.629v52.726a7.286 7.286 0 01-7.215 7.215H19.965V47.414h45.847a7.238 7.238 0 017.215 7.215zm0 0"/>
  </g>
  <g id="j" clip-path="url(#d)">
   <path d="M70.86 54.629v52.726a5.037 5.037 0 01-5.047 5.047H19.965V49.578h45.847a5.038 5.038 0 015.047 5.05zm0 0"/>
  </g>
  <g id="f" clip-path="url(#b)">
   <path d="M70.86 54.629v57.059c.003.292-.024.582-.087.867a5.007 5.007 0 01-4.96 4.18H19.965V49.577h45.847a5.038 5.038 0 015.047 5.05zm0 0"/>
  </g>
  <g id="l" clip-path="url(#e)">
   <path d="m68.695 54.629v52.726a5.04 5.04 0 0 1-5.05 5.047h-43.68v-62.824h43.68a5.041 5.041 0 0 1 5.05 5.05z"/>
  </g>
  <filter id="a" x="0" y="0" width="1" height="1">
   <feColorMatrix in="SourceGraphic" values="0 0 0 0 1 0 0 0 0 1 0 0 0 0 1 0 0 0 1 0"/>
  </filter>
 </defs>
 <use transform="translate(-168 -16)" fill="#363636" mask="url(#g)" xlink:href="#f"/>
 <use transform="translate(-168 -16)" fill="#363636" mask="url(#i)" xlink:href="#h"/>
 <use transform="translate(-168 -16)" fill="#363636" mask="url(#k)" xlink:href="#j"/>
 <use transform="translate(-168 -16)" fill="#363636" mask="url(#m)" xlink:href="#l"/>
 <path d="m2.0176 1.0078c-0.567 0-1.0098 0.44277-1.0098 1.0098v3.5625c0 0.27038 0.10438 0.52322 0.29688 0.71484l1.6973 1.6973h3.1797c0.98437 0 1.8105-0.82617 1.8105-1.8105v-3.1797l-1.6973-1.6973c-0.18966-0.19128-0.44939-0.29783-0.71875-0.29688h-3.5586zm-0.011719 0.99805c0.0034805 0.001161 0.0051059 0.0019531 0.011719 0.0019531h3.5605 0.0019531c0.00184-6.5e-6 0.0026063-0.00131 0.0039063 0l0.0019531 0.0019531 1.4062 1.4082v2.7637c0 0.42437-0.38617 0.81055-0.81055 0.81055h-2.7637l-1.4062-1.4062h-0.0019532c-0.00961-0.00957-0.0019531 0.0056206-0.0019531-0.0058594v-3.5625c0-0.0066122-7.92e-4 -0.0082384-0.0019531-0.011719zm7.8125 5.9941c-1.0045 0-1.8184 0.81386-1.8184 1.8184v3.1816l1.7012 1.7031c0.19162 0.19162 0.45141 0.29688 0.72266 0.29688h3.5586c0.5635 0 1.0176-0.45408 1.0176-1.0176v-3.5586c0-0.27038-0.10525-0.53016-0.29688-0.72266l-1.7031-1.7012h-3.1816zm0 1h2.7676l1.4082 1.4082c0.0052 0.0052 0.005859 0.006295 0.005859 0.015625v3.5586c-4.1e-5 0.025193 0.00762 0.017578-0.017578 0.017578h-3.5586c-0.01103 0-0.012345-6.34e-4 -0.015625-0.003906l-1.4082-1.4102v-2.7676c0-0.46443 0.35393-0.81836 0.81836-0.81836z" fill="#363636" stroke-width=".875"/>
 <path d="m15 2.0176c0-0.567-0.44277-1.0098-1.0098-1.0098h-3.5625c-0.27038 0-0.52322 0.10438-0.71484 0.29688l-1.6973 1.6973v3.1797c0 0.98437 0.82617 1.8105 1.8105 1.8105h3.1797l1.6973-1.6973c0.19128-0.18966 0.29783-0.44939 0.29688-0.71875zm-0.99805-0.011719c-0.0012 0.00348-2e-3 0.00511-2e-3 0.011719v3.5625c6e-6 0.00184 0.0013 0.00261 0 0.00391l-2e-3 0.00195-1.4082 1.4062h-2.7636c-0.42437 0-0.81055-0.38617-0.81055-0.81055v-2.7637l1.4063-1.4062v-0.00195c0.0096-0.00961-0.0056-0.00195 0.0059-0.00195h3.5625c0.0066 0 0.0082-7.92e-4 0.01172-0.00195zm-5.9941 7.8125c0-1.0045-0.81386-1.8184-1.8184-1.8184h-3.1816l-1.7031 1.7012c-0.19162 0.19162-0.29688 0.45141-0.29688 0.72266v3.5586c0 0.5635 0.45408 1.0176 1.0176 1.0176h3.5586c0.27038 0 0.53016-0.10525 0.72266-0.29688l1.7012-1.7031zm-1 0v2.7676l-1.4082 1.4082c-0.0052 0.0052-0.00629 0.0059-0.015625 0.0059h-3.5586c-0.025193-4.1e-5 -0.017578 0.0076-0.017578-0.01758v-3.5586c0-0.01103 6.34e-4 -0.01235 0.00391-0.01563l1.4102-1.4082h2.7676c0.46443 0 0.81836 0.35393 0.81836 0.81836z" fill="#363636" opacity=".45" stroke-width=".875"/>
 <path d="m9.8184 8c-1.0045 0-1.8184 0.81386-1.8184 1.8184v3.1816l1.7012 1.7031c0.19162 0.19162 0.45141 0.29688 0.72266 0.29688h3.5586c0.5635 0 1.0176-0.45408 1.0176-1.0176v-3.5586c0-0.27038-0.10525-0.53016-0.29688-0.72266l-1.7031-1.7012z" fill="#363636" opacity=".75" stroke-width=".875"/>
</svg>

<svg xmlns="http://www.w3.org/2000/svg" xmlns:xlink="http://www.w3.org/1999/xlink" width="16" height="16">
    <defs>
        <clipPath id="d">
            <path d="M0 0h192v152H0z"/>
        </clipPath>
        <clipPath id="b">
            <path d="M0 0h192v152H0z"/>
        </clipPath>
        <clipPath id="c">
            <path d="M0 0h192v152H0z"/>
        </clipPath>
        <clipPath id="e">
            <path d="M0 0h192v152H0z"/>
        </clipPath>
        <mask id="h">
            <g filter="url(#a)">
                <path fill-opacity=".1" d="M0 0h16v16H0z"/>
            </g>
        </mask>
        <mask id="f">
            <g filter="url(#a)">
                <path fill-opacity=".2" d="M0 0h16v16H0z"/>
            </g>
        </mask>
        <mask id="j">
            <g filter="url(#a)">
                <path fill-opacity=".2" d="M0 0h16v16H0z"/>
            </g>
        </mask>
        <mask id="l">
            <g filter="url(#a)">
                <path fill-opacity=".1" d="M0 0h16v16H0z"/>
            </g>
        </mask>
        <g id="i" clip-path="url(#b)">
            <path d="M73.027 54.629v52.726a7.286 7.286 0 0 1-7.215 7.215H19.965V47.414h45.847a7.238 7.238 0 0 1 7.215 7.215zm0 0"/>
        </g>
        <g id="k" clip-path="url(#c)">
            <path d="M70.86 54.629v52.726a5.037 5.037 0 0 1-5.047 5.047H19.965V49.578h45.847a5.038 5.038 0 0 1 5.047 5.05zm0 0"/>
        </g>
        <g id="g" clip-path="url(#d)">
            <path d="M70.86 54.629v57.059c.003.292-.024.582-.087.867a5.007 5.007 0 0 1-4.96 4.18H19.965V49.577h45.847a5.038 5.038 0 0 1 5.047 5.05zm0 0"/>
        </g>
        <g id="m" clip-path="url(#e)">
            <path d="M68.695 54.629v52.726a5.04 5.04 0 0 1-5.05 5.047h-43.68V49.578h43.68a5.041 5.041 0 0 1 5.05 5.05z"/>
        </g>
        <filter id="a" width="1" height="1" x="0" y="0">
            <feColorMatrix in="SourceGraphic" values="0 0 0 0 1 0 0 0 0 1 0 0 0 0 1 0 0 0 1 0"/>
        </filter>
    </defs>
    <use xlink:href="#g" fill="#050505" fill-opacity=".7" mask="url(#f)" transform="translate(-168 -16)"/>
    <use xlink:href="#i" fill="#050505" fill-opacity=".7" mask="url(#h)" transform="translate(-168 -16)"/>
    <use xlink:href="#k" fill="#050505" fill-opacity=".7" mask="url(#j)" transform="translate(-168 -16)"/>
    <use xlink:href="#m" fill="#050505" fill-opacity=".7" mask="url(#l)" transform="translate(-168 -16)"/>
    <path fill="#050505" fill-opacity=".7" d="M2.018 1.008a.998.998 0 0 0-1.01 1.01V5.58a1 1 0 0 0 .297.715l1.697 1.697h3.18a1.83 1.83 0 0 0 1.81-1.81v-3.18L6.295 1.305a1.008 1.008 0 0 0-.719-.297H2.018zm-.012.998c.003.001.005.002.012.002H5.58c.002 0 .003-.002.004 0l.002.002 1.406 1.408v2.764c0 .424-.386.81-.81.81H3.418L2.012 5.586H2.01c-.01-.01-.002.006-.002-.006V2.018c0-.007-.001-.009-.002-.012zM9.818 8A1.818 1.818 0 0 0 8 9.818V13l1.701 1.703c.192.192.452.297.723.297h3.558c.564 0 1.018-.454 1.018-1.018v-3.558c0-.27-.105-.53-.297-.723L13 8H9.818zm0 1h2.768l1.408 1.408c.005.005.006.006.006.016v3.558c0 .026.008.018-.018.018h-3.558c-.011 0-.012 0-.016-.004L9 12.586V9.818C9 9.354 9.354 9 9.818 9z"/>
    <path fill="#050505" d="M15 2.018a.998.998 0 0 0-1.01-1.01h-3.562a1 1 0 0 0-.715.297L8.016 3.002v3.18c0 .984.826 1.81 1.81 1.81h3.18l1.697-1.697c.191-.19.298-.45.297-.719zm-.998-.012c-.001.003-.002.005-.002.012v3.566l-.002.002-1.408 1.406H9.826c-.424 0-.81-.386-.81-.81V3.418l1.406-1.406V2.01c.01-.01-.006-.002.006-.002h3.562c.007 0 .008-.001.012-.002zM8.008 9.818A1.818 1.818 0 0 0 6.189 8H3.008L1.305 9.701a1.02 1.02 0 0 0-.297.723v3.558c0 .564.454 1.018 1.017 1.018h3.56c.27 0 .53-.105.722-.297L8.007 13zm-1 0v2.768L5.6 13.994C5.594 14 5.593 14 5.584 14H2.025c-.025 0-.017.008-.017-.017v-3.56c0-.01 0-.011.004-.015L3.422 9H6.19c.464 0 .818.354.818.818z" opacity=".45"/>
    <path fill="#050505" d="M9.818 8A1.818 1.818 0 0 0 8 9.818V13l1.701 1.703c.192.192.452.297.723.297h3.558c.564 0 1.018-.454 1.018-1.018v-3.558c0-.27-.105-.53-.297-.723L13 8z" opacity=".75"/>
</svg>
